icons/discord.svg

<svg width="24" height="24" viewBox="0 0 24 24" fill="none" xmlns="http://www.w3.org/2000/svg">
<path d="M8.87884 9.99998C7.79338 9.99998 6.91345 10.8954 6.91345 12C6.91345 13.1045 7.79338 14 8.87884 14C9.96429 14 10.8442 13.1045 10.8442 12C10.8442 10.8954 9.96429 9.99998 8.87884 9.99998Z" fill="black"/>
<path d="M14.775 9.99998C13.6895 9.99998 12.8096 10.8954 12.8096 12C12.8096 13.1045 13.6895 14 14.775 14C15.8604 14 16.7404 13.1045 16.7404 12C16.7404 10.8954 15.8604 9.99998 14.775 9.99998Z" fill="black"/>
<path fill-rule="evenodd" clip-rule="evenodd" d="M13.8626 3.62864C14.0261 3.2127 14.4415 2.95816 14.8792 3.00568C16.4208 3.17301 18.1292 3.52423 19.7588 4.67951C19.9277 4.79919 20.0553 4.96978 20.1238 5.16723C21.1277 8.06204 21.68 10.5968 21.8941 12.6442C22.1041 14.6526 22.0015 16.3085 21.5835 17.3715C21.5734 17.3973 21.5622 17.4226 21.55 17.4475C21.1848 18.1902 20.6324 19.0398 19.941 19.7192C19.2642 20.3844 18.3349 21 17.2317 21C16.8835 21 16.61 20.841 16.478 20.7554C16.3164 20.6506 16.1665 20.5203 16.0357 20.3922C15.7714 20.1332 15.5008 19.7989 15.2597 19.4485C15.0174 19.0962 14.7849 18.6985 14.609 18.3028C14.5711 18.2175 14.5335 18.1272 14.498 18.0331C12.6988 18.3212 10.9685 18.3219 9.16961 18.0353C9.1413 18.1164 9.11148 18.1949 9.08118 18.2701C8.92286 18.6629 8.71255 19.0596 8.49135 19.4126C8.27176 19.7631 8.023 20.1 7.77637 20.3627C7.65458 20.4924 7.51181 20.6272 7.35445 20.7369C7.22762 20.8254 6.95035 21 6.5872 21C5.50093 21 4.59994 20.3653 3.95722 19.702C3.29695 19.0206 2.77138 18.1706 2.42472 17.4301C2.41336 17.4058 2.40297 17.3811 2.39357 17.356C1.99887 16.3016 1.90056 14.6546 2.1002 12.6492C2.30361 10.6059 2.82854 8.07438 3.78365 5.18155C3.84835 4.98559 3.97113 4.81486 4.13511 4.69283C5.69361 3.53308 7.25578 3.17563 8.77142 3.00603C9.2102 2.95693 9.6273 3.21158 9.79124 3.62865L10.6478 5.80766C11.0431 5.76944 11.434 5.74999 11.8269 5.74999C12.2198 5.74999 12.6107 5.76944 13.0061 5.80766L13.8626 3.62864ZM8.66111 6.13871L8.25115 5.09576C7.29525 5.25799 6.41483 5.54334 5.54509 6.13005C4.69441 8.77145 4.23503 11.0481 4.05557 12.8508C3.86892 14.7258 3.99589 15.9833 4.21733 16.6086C4.49425 17.1906 4.89658 17.8229 5.35667 18.2977C5.73842 18.6917 6.08146 18.8991 6.36498 18.9707C6.49826 18.8268 6.66625 18.6054 6.83416 18.3374C6.98136 18.1024 7.11487 17.8534 7.21692 17.6202C7.02705 17.5702 6.83595 17.5172 6.6435 17.4613C6.12166 17.3095 5.81949 16.7561 5.96858 16.225C6.11768 15.694 6.66159 15.3865 7.18343 15.5382C10.4464 16.4869 13.2074 16.4869 16.4704 15.5382C16.9923 15.3865 17.5362 15.694 17.6853 16.225C17.8344 16.7561 17.5322 17.3095 17.0103 17.4613C16.8267 17.5147 16.6442 17.5654 16.4629 17.6133C16.5727 17.8368 16.7141 18.0751 16.8698 18.3015C17.0587 18.5761 17.2487 18.8043 17.399 18.9516C17.4097 18.962 17.4198 18.9717 17.4293 18.9807C17.7618 18.9174 18.1524 18.6966 18.5758 18.2805C19.0606 17.8041 19.4828 17.1718 19.7726 16.5923C20.0017 15.9749 20.1354 14.7266 19.9398 12.8558C19.7518 11.0578 19.2704 8.78531 18.3781 6.1472C17.437 5.5453 16.4447 5.25484 15.4047 5.09075L14.9927 6.13871C15.4788 6.24943 15.9843 6.38302 16.519 6.53847C17.0408 6.69019 17.343 7.24368 17.1939 7.77471C17.0448 8.30574 16.5009 8.61324 15.9791 8.46151C14.3058 7.975 13.052 7.74999 11.8269 7.74999C10.6019 7.74999 9.34809 7.975 7.67478 8.46151C7.15293 8.61324 6.60903 8.30574 6.45993 7.77471C6.31083 7.24368 6.613 6.69019 7.13485 6.53847C7.6695 6.38302 8.17505 6.24943 8.66111 6.13871ZM17.5344 19.0688L17.5304 19.0661C17.5453 19.0743 17.5472 19.0771 17.5344 19.0688Z" fill="black"/>
</svg>

<svg
  width="24"
  height="24"
  viewBox="0 0 24 24"
  xmlns="http://www.w3.org/2000/svg"
>
  <path d="M8.879 10c-1.086 0-1.966.895-1.966 2 0 1.104.88 2 1.966 2 1.085 0 1.965-.896 1.965-2 0-1.105-.88-2-1.965-2z" />
  <path d="M14.775 10c-1.085 0-1.965.895-1.965 2 0 1.104.88 2 1.965 2s1.965-.896 1.965-2c0-1.105-.88-2-1.965-2z" />
  <path
    fill-rule="evenodd"
    clip-rule="evenodd"
    d="M13.863 3.629a.981.981 0 0 1 1.016-.623c1.542.167 3.25.518 4.88 1.674.169.12.296.29.365.487 1.004 2.895 1.556 5.43 1.77 7.477.21 2.009.108 3.664-.31 4.728-.01.025-.022.05-.034.076-.365.742-.918 1.592-1.609 2.271-.677.665-1.606 1.281-2.71 1.281-.348 0-.621-.159-.753-.245a2.914 2.914 0 0 1-.442-.363 6.556 6.556 0 0 1-.776-.944 7.324 7.324 0 0 1-.651-1.145 5.09 5.09 0 0 1-.111-.27c-1.8.288-3.53.289-5.328.002-.029.081-.059.16-.089.235-.158.393-.368.79-.59 1.143-.22.35-.468.687-.715.95-.121.13-.264.264-.422.374a1.355 1.355 0 0 1-.767.263c-1.086 0-1.987-.635-2.63-1.298-.66-.681-1.186-1.531-1.532-2.272a1.018 1.018 0 0 1-.031-.074c-.395-1.054-.493-2.701-.294-4.707.204-2.043.729-4.575 1.684-7.467a1 1 0 0 1 .351-.49c1.559-1.159 3.12-1.516 4.636-1.686a.98.98 0 0 1 1.02.623l.857 2.179a12.213 12.213 0 0 1 2.358 0l.857-2.18zM8.66 6.139l-.41-1.043c-.956.162-1.836.447-2.706 1.034-.85 2.641-1.31 4.918-1.49 6.72-.186 1.876-.06 3.133.162 3.759.277.582.68 1.214 1.14 1.689.381.394.724.601 1.008.673.133-.144.301-.366.47-.634.146-.235.28-.484.382-.717a23.62 23.62 0 0 1-.573-.159 1.003 1.003 0 0 1-.675-1.236.98.98 0 0 1 1.214-.687c3.263.949 6.024.949 9.287 0a.98.98 0 0 1 1.215.687 1.003 1.003 0 0 1-.675 1.236c-.183.054-.366.104-.547.152.11.224.251.462.407.689a4.598 4.598 0 0 0 .56.679c.332-.064.722-.284 1.146-.7.485-.477.907-1.11 1.197-1.689.229-.617.362-1.865.167-3.736-.188-1.798-.67-4.07-1.562-6.709-.941-.602-1.933-.892-2.973-1.056l-.412 1.048c.486.11.991.244 1.526.4.522.151.824.705.675 1.236a.98.98 0 0 1-1.215.687c-1.673-.487-2.927-.712-4.152-.712s-2.479.225-4.152.712a.98.98 0 0 1-1.215-.687 1.003 1.003 0 0 1 .675-1.237c.535-.155 1.04-.289 1.526-.4zm8.873 12.93l-.004-.003a.103.103 0 0 1 .004.003z"
  />
</svg>
